X:1
T:O How I Love Jesus
T:O How I Love Jesus
T:19th Century American melody
T:Public Domain Courtesy of the Cyber Hymnal™
C:19th Century American melody
Z:Public Domain
Z:Courtesy of the Cyber Hymnal™
%%score ( 1 2 ) ( 3 4 )
L:1/8
M:6/8
K:Ab
V:1 treble 
V:2 treble 
V:3 bass 
V:4 bass 
V:1
 [CA] | [Ec]2 [Ec] [Ec][DB][Ec] | [CA]2 [CA] [CA]2 [EA] | [EB]2 [EB] BA[EB] | [Ec]3 [Ae]2 [Ed] | %5
 [Ec]2 [Ec] [Ec][DB][Ec] | [CA]2 [CA] [CA]2 [EA] | Bc[Fd] [Ec]2 [DB] | [CA]3- [CA]3 || %9
 [Ec]3 [Ec][DB][Ec] | [CA]3 A3 | [DB]3 [DB][CA][DB] | [Ec]3 e2 d | [Ec]3 [Ec][DB][Ec] | %14
 [CA]3 [CA]2 [EA] | Bc[Fd] [Ec]2 [DB] | [CA]6 |] %17
V:2
 x | x6 | x6 | x3 E2 x | x6 | x6 | x6 | F2 x4 | x6 || x6 | x3 C2 E | x6 | x3 A3 | x6 | x6 | F2 x4 | %16
 x6 |] %17
V:3
 [A,,A,] | [A,,A,]2 [A,,A,] [A,,A,]2 [A,,A,] | [A,,A,]2 [A,,A,] [A,,A,]2 [C,A,] | %3
 [E,G,]2 [E,G,] G,F,[E,G,] | A,3- [A,C]2 B, | [A,,A,]2 [A,,A,] [A,,A,]2 [A,,A,] | %6
 [A,,A,]2 [A,,A,] [A,,A,]2 [C,A,] | [D,A,]2 [D,A,] [E,A,]2 [E,G,] | [A,,A,]3- [A,,A,]3 || %9
 [A,,A,]3 [A,,A,][A,,A,][A,,A,] | [A,,A,]3 A,3 | [E,G,]3 [E,G,][E,A,][E,G,] | A,3 C2 B, | %13
 [A,,A,]3 [A,,A,][A,,A,][A,,A,] | [A,,A,]3 [A,,A,]2 [D,A,] | [D,A,]2 [D,A,] [E,A,]2 [E,G,] | %16
 [A,,A,]6 |] %17
V:4
 x | x6 | x6 | x3 E,2 x | x5 A, | x6 | x6 | x6 | x6 || x6 | x3 A,,2 C, | x6 | x3 A,3 | x6 | x6 | %15
 x6 | x6 |] %17

